X:1
T:Title
%%score { 1 | 2 }
L:1/8
Q:1/4=106
M:4/4
K:G
V:1 treble nm="Grand Piano"
V:2 bass 
V:1
 G2 B>A G2 D2 | E2 [EG]>E D4 | G2 G>[FA] B2 B2 | c2 B>B [FA]4 | B2 B>A G2 D2 | E2 [EG]>E D4 | %6
w: Asa~Hull * * * *||||||
 G2 G>A [DGB]2 [CFA]2 | [B,G]6 z2 | [FA]2 [FA]2 [FA]>[EG] F>[EG] | [FA]2 [GB]2 [Ac]4 | %10
w: ||||
 B2 B2 B>A G>A | B2 c2 d4 | [Ec]2 [Ec]>[Ec] [Ec]2 [Ec]2 | B2 B>B d4 | [Ec]4 B4 | [EA]4 G4 | %16
w: ||||||
 F2 F>G A2 B2 | [B,DG]6 z2 |] %18
w: ||
V:2
 [G,B,D]2 [G,D]>[G,CD] [G,B,D]2 [G,B,]2 | [C,G,C]2 [C,G,]>[C,G,C] [G,B,]4 | %2
 [E,B,E]2 [E,B,E]>[D,D][K:treble] [G,DG]2 [G,DG]2 | [A,DF]2 [G,DG]>[G,DG] [D,D]4 | %4
 [G,DG]2 [G,DG]>[K:bass][G,CD] [G,B,D]2 [G,B,]2 | [C,G,C]2 [C,G,]>[C,G,C] [G,B,]4 | %6
 [E,B,E]2 [E,B,E]>[E,CE] D,2 D,2 | G,,6 z2 | [D,D]2 [D,D]2 [D,D]>[D,D] [D,D]>[D,D] | %9
 [D,D]2 [D,D]2 [D,D]4 | [G,DG]2 [G,DG]2 [G,DG]>[G,CG] [G,B,]>[G,CG] | [G,DG]2 [G,CG]2 [G,B,G]4 | %12
 [C,G,]2 [C,G,]>[C,G,] [C,G,]2 [C,G,]2 | [G,D]2 [G,DG]>[G,DG] [G,B,G]4 | [C,G,]4 [G,D]4 | %15
 [C,C]4 [D,B,D]4 | [D,A,D]2 [D,A,D]>[D,B,D] [D,CD]2 [D,D]2 | [G,,G,]6 z2 |] %18

